X:384
T:Dream Valley of Glendaruel, The
C:Joe Buchanan's Scottish Tome - Page 047.2
I:047 2
R:March
Z:Carl Allison
L:1/8
M:3/4
K:D
A>B d2 A2 | e>f a2 d2 | ef g3 B | f>d f2 e2 |
f>e df A2 | a>g fa d2 | d>c B2 Gg | e>c d4 :|
f>g a2 d2 | g>f f2 e2  | f>g a2 d>c | B>e c2 A2 |
f>ef2 df A2 | a>g fa d2 | d>c B2 Gg | ec d4 :|
